app/dist/common/images/henan-shuang-inve.svg

<svg height="18" viewBox="0 0 18 18" width="18" xmlns="http://www.w3.org/2000/svg"><path d="m0 0h18v18h-18z" fill="#f0f3fa"/><g fill="#0c4ca3"><path d="m8.7 4.66-2.47 3.68 2.47-1.26v1.57l-.03.05h-2.51c.05-1.15.4-2.16.9-2.89a2.58 2.58 0 0 1 1.64-1.18z"/><path d="m8.7 4.02v-.02c-3.06.12-5.52 2.15-5.7 4.7h2.56c.1-2.48 1.44-4.47 3.14-4.68zm0 7.18-1.76.82.11.17a2.58 2.58 0 0 0 1.65 1.19z"/><path d="m8.7 13.99c-.92-.12-1.74-.75-2.3-1.7l-.57.25.4-.54a6.5 6.5 0 0 1 -.67-2.7h-2.56c.18 2.54 2.64 4.58 5.7 4.7z"/><path d="m6.64 11.45a6 6 0 0 1 -.48-2.15h2.07l-1.6 2.15z"/></g><path d="m9.3 4v.02c1.7.22 3.03 2.2 3.14 4.68h2.56c-.18-2.54-2.64-4.57-5.7-4.7z" fill="#ee1c25"/><path d="m9.3 4.67v-.04c.6.1 1.17.5 1.64 1.18.5.73.84 1.74.9 2.89h-2.5l-.04-.04v-1.58l2.45 1.26zm0 9.33v-.01c.92-.12 1.73-.76 2.3-1.71l.56.26-.4-.54c.4-.77.64-1.7.68-2.7h2.56c-.18 2.54-2.64 4.57-5.7 4.7z" fill="#ee1c25"/><path d="m9.3 13.37v-2.17l1.75.82-.1.17a2.59 2.59 0 0 1 -1.65 1.18zm2.06-1.92-1.59-2.15h2.07c-.04.8-.21 1.53-.48 2.15z" fill="#ee1c25"/></svg>

<!-- by TradingView --><svg width="18" height="18" viewBox="0 0 18 18" xmlns="http://www.w3.org/2000/svg"><path fill="#F0F3FA" d="M0 0h18v18H0z"/><path d="M8.7 4.66 6.23 8.34 8.7 7.08v1.57l-.03.05H6.16c.05-1.15.4-2.16.9-2.89A2.58 2.58 0 0 1 8.7 4.63v.03Z" fill="#0C4CA3"/><path d="M8.7 4.02V4C5.64 4.12 3.18 6.15 3 8.7h2.56C5.66 6.22 7 4.23 8.7 4.02ZM8.7 11.2l-1.76.82.11.17a2.58 2.58 0 0 0 1.65 1.19V11.2Z" fill="#0C4CA3"/><path d="M8.7 13.99c-.92-.12-1.74-.75-2.3-1.7l-.57.25.4-.54a6.5 6.5 0 0 1-.67-2.7H3c.18 2.54 2.64 4.58 5.7 4.7v-.01Z" fill="#0C4CA3"/><path d="M6.64 11.45a6 6 0 0 1-.48-2.15h2.07l-1.6 2.15Z" fill="#0C4CA3"/><path d="M9.3 4v.02c1.7.22 3.03 2.2 3.14 4.68H15c-.18-2.54-2.64-4.57-5.7-4.7Z" fill="#EE1C25"/><path d="M9.3 4.67v-.04c.6.1 1.17.5 1.64 1.18.5.73.84 1.74.9 2.89h-2.5l-.04-.04V7.08l2.45 1.26L9.3 4.67ZM9.3 14v-.01c.92-.12 1.73-.76 2.3-1.71l.56.26-.4-.54c.4-.77.64-1.7.68-2.7H15c-.18 2.54-2.64 4.57-5.7 4.7Z" fill="#EE1C25"/><path d="M9.3 13.37V11.2l1.75.82-.1.17a2.59 2.59 0 0 1-1.65 1.18ZM11.36 11.45 9.77 9.3h2.07c-.04.8-.21 1.53-.48 2.15Z" fill="#EE1C25"/></svg>
